X: 21173
T: BARCAROLE SETT (tune 6)
C:
%R: reel
B: Elias Howe "The Musician's Companion" 1843 p.117 #3
S: http://imslp.org/wiki/The_Musician's_Companion_(Howe,_Elias)
Z: 2015 John Chambers <jc:trillian.mit.edu>
M: 2/4
L: 1/16
K: G
% - - - - - - - - - - - - - - - - - - - - - - - - - - - - -
V: 1 name="6"
d2 |\
gfed gfed | d3c B2d2 | dcBA GFED | G2B2 G2d2 |\
gfed gfed | d3c B3d | dcBA GFED | G2B2G2 H|]
BG |\
FA d4 cA | GB d4 BG | FAd^c ed=cA | GB d4 ef |\
gfed gfed | d^cd=c Bc^cd | d=cBA GFED | G2B2"^D.C."G2 |]
d2 |\
^c2eg g2ec | d2df a2fd | ceag fedc | dfe^c d2d2 |\
gfed gfed | edef agfe | dgBd dcBA | G2g2"^D.C."g2 |]
% - - - - - - - - - - Dance description - - - - - - - - - -
%%begintext align
%% All chassa across and back,
%% all balance to partners,
%% all chain,
%% all promenade.
%% (A march here if you please.)
%%endtext
% - - - - - - - - - - - - - - - - - - - - - - - - - - - - -
%%sep 1 1 300

%%sep 1 1 500

